X:1
T:Angioletti dogliosi
T:Angioletti dogliosi
T:Marc'Antonio Tornioli
T:Source : Canzonette spirituali a tre voci---Libro Primo---Venetia---Ang.Gardano---1607. Editor : André Vierendeels (22/06/166).
T:Notes : Original clefs : C1, C1, F4 Editorial accidentals above the staff Text by Angelo Grillo (Pietosi affetti)
T:©
T:©
T:©
C:Marc'Antonio Tornioli
Z:©
%%score [ 1 2 3 ]
L:1/8
Q:1/4=96
M:4/4
K:C
V:1 treble nm="Soprano 1" snm="S 1"
V:2 treble nm="Soprano 2" snm="S 2"
V:3 bass nm="Bass" snm="B"
V:1
 z4 d2 d2 | d8 | d8- | d4 c4- | c4 B4- | B4 A4 | c2 d2 e2 ce | d8 |"^-natural" ^c4 z2 c2 | A4 B4 | %10
w: An- gio-|let-|ti|_ do-|* glio-|* si,|ch'as- ciu- ga- te co'|ba-|ci, *|mio Gie-|
w: Voi pur|ve-|der|_ po-|* te-|* te,|co- me, con l'a- mor|mi-|o. *|que- sti|
 G4- GGAB | c2 A2 d4 | BBcd e3 c | d8 | e8 :: z2 dd d4 | d2 G2 B4- | B2 A^F GA B2- | B2 A2 G2 G2 | %19
w: su _ le pia- ghe|sue vi- va-|ci, le pia- ghe le vi-|va-|ci.|Mes- sa- gie-|ri pie- to-|* si, che di voi por-|* * * ta'un|
w: miei _ so- spir l'a-|ni- ma'in- vi-|o, l'a- ni- ma'in- vi- *||o.|Voi dun- que|li'ac- co- glie-|* te, voi che por- ta-|* te'al Ciel prie-|
 ^F2 z d B3 B | ^c4 cedc | BAGF E4 | D2 E2 c3 B | A2 B2 A4 | G8 :| %25
w: mio so- spir fra|mil- le, a le ca-|den- ti'e san- gui- no-|se, e san- gui-|no- se stil-|le.|
w: ghi, por- ta- te'al|Ciel prie- ghi'e de- di-|ri, por- ta- te gl'a-|ni- * ma- ti|miei so- spi-|ri.|
V:2
 B2 B2 B4- | B4 A4- | A4 B4 | G8 | ^F4 G4- | G4 ^F4 | z4 G2 A2 | B2 GA A2 ^G2 | A8 | z2 F2 D4 | %10
w: An- gio- let-|* ti|_ do-|glio-||* si,|ch'as- ciu-|ga- te co' ba- *|ci,|al mio|
w: Voi pur ve-|* der|_ po-|te-||* te,|co- me,|con l'a- mor mi- *|o.|In que-|
 E4 C4- | CDEF GABc | d2 c2 c4- | c2 BA B4 | c8 :: BB B4 A2- | A2 B2 G4- | G2 ^FD EF G2- | %18
w: Gie- su|_ le pia- ghe sue _ _ _|_ vi- va-||ci.|Mes- sa- gie- ri|_ pie- to|_ si, che di voi por-|
w: sti miei|_ so- spir l'a- * * * *|* ni- ma'in-|* * * vi-|o.|Voi dun- que li'ac-|* co glie-|te, voi che por- ta- tte'al|
 G2 F2 E2 E2 | A2 ^F2 ^G3 G |"^-natural" A4 AcBA | GFED C4 | B,2 C2 E3 G | ^F2 G2 G2 F2 | G8 :| %25
w: * * * ta'un|mio so- spir fra|mil- le, a le ca-|den- ti'e san- gui- no-|se, e san- gui-|no- se stil- *|le|
w: _ Ciel _ prie-|ghi, por- ta- te'al|Ciel prie- ghi'e de- si-|ri, por- ta- te gl'a-|ni- * ma- ti|miei so- spi- *|ri.|
V:3
 G,2 G,2 G,4- | G,4 ^F,4- | F,4 G,4 | E,8 | D,8- | D,8 | A,,2 B,,2 C,2 A,,C, | B,,8 | A,,8 | z8 | %10
w: An- gio- let-|* ti|_ do-|glio-|si,|_|ch'as- ciu- ga- te co'|ba-|ci,||
w: Voi pur ve-|* der|_ po-|te-|te,|_|co- me, con l'a- mor|mi-|o.||
 z4 z2 C,2 | A,,4 B,,4 | G,,G,,A,,B,, C,2 A,,2 | G,,8 | C,8 :: G,G, G,4 ^F,2- | F,2 G,2 E,4 | %17
w: al|mio Gie-|su le pie- ghe sue vi-|va-|ci.|Mes- sa- gie- ri|_ pie- to-|
w: In|que- sti|miei so- spir l'a- ni- ma'in-|vi-|o|Voi dun- que li'ac-|* co- glie-|
 D,4 z4 | z G,A,B, C2 C,2 | D,3 D, E,3 E, | A,,4 A,,4 | z4 z2 E,2 | G,F,E,D, C,B,,A,,G,, | D,8 | %24
w: si|che di voi por- ta'un|mio so- spir fra|mil- le,|a|le ca den- ti'e san- gui- no- se|stil-|
w: te,|voi che por- ta- te'al|Ciel prie- ghi, por-|ta- te,|por-|ta- te gl'a- ni- ma- ti miei so-|spi-|
 G,,8 :| %25
w: le.|
w: ri.|

